X: 01012
T: BRYAN'S FANCY
C: Bob McQuillen Dec '74
B: Bob's Note Book 1 #12
%R: march
Z: 2019 John Chambers <jc:trillian.mit.edu>
M: C
L: 1/4
K: D
zA \
| d>A FA | BA df | e>f gf | ed ce |\
| d>A FA | BA df | ge dc | d2 :|
|| fg \
|: a>f gf | eA ef | g>f ge | fd dA |\
| BG cA | dB eg | f2 e2 |1 de fg :|2 d2 |]
%%begintext align
%% For Art Bryan
%%endtext

%%sep 1 1 500

%%sep 1 1 500

